X:1
T: Miss Jane McInnes of Dandaleith
C:William Marshall
R:Reel
Q: 232
K:D
M:4/4
L:1/8
|:D2 DF AB df|D2 DF ED B,2|D2 DF AB df|ab af d1/2d1/2d d2|
D2 DF AB df|D2 DF ED B,2|D2 DF AB df|ab af d1/2d1/2d d2|
gb fa ef eA|fe dd B1/2B1/2B B2|gb fa ef dA|Bd AF D1/2D1/2D D2|
gb fa ef eA|fe dd B1/2B1/2B B2|ge fd ec dA|Bd AF D1/2D1/2D D2:|
